X:3149
T:Cock up they beaver Jemme
M:6/4
L:1/4
S:Henry Atkinson 1694/5 transcribed John Stokoe 1883
K:F Major
d|c2FA>GF|G>AGB2D|c2FA2G|FfBABc|dcdfcA|G>AGB2f|c2BA2G|FfcA2F:||:FfcA/2B/
2cA|GgdB2G|FfcA/2B/2cA|FfBABc|B/2A/2B/2c/2d/2e/2fFA|G>AGB2f|c2BA2G|FfcA2
F:||
% Output from ABC2Win  Version 2.1 h on 16/03/99


